X: 52
T: Praeludia organi op. 5 – Allegro moderato
C: Franciszek Walczyński
%%abc-version 2.0
%%abcx-abcm2ps-target-version 5.9.1 (29 Sep 2008)
%%abc-creator hum2abc beta
%%abcx-conversion-date 2021/10/04 07:38:38
%%abc-edited-by Andrzej Borzym
%%abc-edited-by Krzysztof Stępień
%%abcx-initial-encoding-date 2021-07-26
%%humdrum-veritas 4122285795
%%humdrum-veritas-data 4071745377
%%linebreak <none>
%%barnumbers 0
L: 1/8
M: C
N: Derived from pl-kozmzk--mzk-m-159--041_walczynski-franciszek--praeludia-organi-op-5-allegro-moderato.krn
Q: "41. Allegro moderato."
%%staves {1 2}
V: 1 clef=treble
V: 2 clef=bass
K: F
[V:1] z8 & z8 | 
[V:2] z8 & A,^G,A,E, =G,F,E,D, | 
[V:1] z8 & z8 | 
[V:2] A^GAE =GFED & ^C,4D,2E,F, | 
[V:1] z8 & d^cdA =cBAG | 
[V:2] D8 & ^F,4G,2A,B, | 
[V:1] z8 & ^F4-FGAB | 
[V:2] C_EDCD4 & A,CB,A,B,2^F,G, | 
[V:1] a^gae =gfed & A6A2 | 
[V:2] ^C2!accent!E2-ED^CD & A,2^C,2D,2E,F, | 
[V:1] fed^cd4- & B2AG- GFEF | 
[V:2] DGFED4 & G,2A,A,,B,,4 | 
[V:1] d4^c4 & E4-EBAG | 
[V:2] B,A,B,G, A,G,F,E, & G,,4A,,4 | 
[V:1] d2=c2!accent!B3A & FDE^F GFGD- | 
[V:2] D,8 & B,,2A,,2G,,2F,,2 | 
[V:1] ^G4=GBAG & D=FED^C4 | 
[V:2] E,4-E,G,F,E, & E,,4A,,4 | 
[V:1] GF2E2D2^C & D2B,2A,4 | 
[V:2] F,2G,2F,2E,G,- & D,2G,,2A,,4 | 
[V:1] !fermata!D8 & A,8 |]  
[V:2] G,G,^F,E,F,4 & !fermata!D,,8 |]  


